src/components/icon/data-transfer-upload.svg

<svg xmlns="http://www.w3.org/2000/svg" width="16" height="16" viewBox="0 0 24 24">
<path d="M9,13 L3,13 L10.8154202,5.47258727 C11.4696456,4.84247091 12.5303544,4.84247091 13.1845798,5.47258727 L21,13 L15,13 L15,23 C15,23.5522847 14.5522847,24 14,24 L10,24 C9.44771525,24 9,23.5522847 9,23 L9,13 Z"/>
<path d="M1.5,3 C0.671572875,3 -1.01453063e-16,2.32842712 0,1.5 C1.01453063e-16,0.671572875 0.671572875,0 1.5,0 L22.5,0 C23.3284271,0 24,0.671572875 24,1.5 C24,2.32842712 23.3284271,3 22.5,3 L1.5,3 Z"/>
</svg>

<svg xmlns="http://www.w3.org/2000/svg" width="16" height="16" viewBox="0 0 24 24"><path d="M9 13H3l7.815-7.527a1.72 1.72 0 0 1 2.37 0L21 13h-6v10a1 1 0 0 1-1 1h-4a1 1 0 0 1-1-1V13zM1.5 3a1.5 1.5 0 0 1 0-3h21a1.5 1.5 0 0 1 0 3h-21z"/></svg>
